Sources/FrostedUI/Resources/Icons.xcassets/calendarX32.imageset/calendar-x-32.svg

<svg width="32" height="32" viewBox="0 0 32 32" fill="none" xmlns="http://www.w3.org/2000/svg" data-fui-icon="true">
  <path
    d="M21.667 2.91699C22.0811 2.91717 22.417 3.25289 22.417 3.66699V5.58398H24.333C26.2199 5.58398 27.7498 7.11318 27.75 9V24.334C27.7497 26.2207 26.2198 27.75 24.333 27.75H7.66699C5.78022 27.75 4.25031 26.2207 4.25 24.334V9C4.25018 7.11318 5.78013 5.58398 7.66699 5.58398H9.58301V3.66699C9.58301 3.25289 9.91894 2.91717 10.333 2.91699C10.7472 2.91699 11.083 3.25278 11.083 3.66699V5.58398H20.917V3.66699C20.917 3.25278 21.2528 2.91699 21.667 2.91699ZM7.66699 7.08398C6.60855 7.08398 5.75018 7.9416 5.75 9V24.334C5.75031 25.3923 6.60863 26.25 7.66699 26.25H24.333C25.3914 26.25 26.2497 25.3923 26.25 24.334V9C26.2498 7.9416 25.3915 7.08398 24.333 7.08398H7.66699ZM18.8057 12.8037C19.0986 12.5108 19.5733 12.5108 19.8662 12.8037C20.1586 13.0966 20.1589 13.5715 19.8662 13.8643L17.0605 16.6699L19.8633 19.4727C20.1558 19.7656 20.1561 20.2404 19.8633 20.5332C19.5705 20.8257 19.0956 20.8257 18.8027 20.5332L16 17.7305L13.1973 20.5332C12.9045 20.8258 12.4296 20.8256 12.1367 20.5332C11.8439 20.2404 11.844 19.7656 12.1367 19.4727L14.9395 16.6699L12.1338 13.8643C11.841 13.5715 11.8412 13.0966 12.1338 12.8037C12.4267 12.5108 12.9014 12.5108 13.1943 12.8037L16 15.6094L18.8057 12.8037Z"
    fill="currentColor"
  />
</svg>

<svg xmlns="http://www.w3.org/2000/svg" width="32" height="32" fill="none" data-fui-icon="true" viewBox="0 0 32 32"><path fill="currentColor" d="M21.667 2.917a.75.75 0 0 1 .75.75v1.917h1.916A3.417 3.417 0 0 1 27.75 9v15.334a3.417 3.417 0 0 1-3.417 3.416H7.667a3.417 3.417 0 0 1-3.417-3.416V9a3.417 3.417 0 0 1 3.417-3.416h1.916V3.667a.75.75 0 0 1 1.5 0v1.917h9.834V3.667a.75.75 0 0 1 .75-.75m-14 4.167A1.917 1.917 0 0 0 5.75 9v15.334c0 1.058.859 1.916 1.917 1.916h16.666a1.917 1.917 0 0 0 1.917-1.916V9a1.917 1.917 0 0 0-1.917-1.916zm11.139 5.72a.75.75 0 1 1 1.06 1.06l-2.805 2.806 2.802 2.803a.75.75 0 0 1-1.06 1.06L16 17.73l-2.803 2.803a.75.75 0 0 1-1.06-1.06l2.803-2.803-2.806-2.806a.75.75 0 0 1 1.06-1.06L16 15.609z"/></svg>
